X: 23
T:The Highest Hill In Sligo
M:2/2
L:1/8
C:Ed Reavy
R:Reel
N:From this county came some of the greatest 
N:fiddlers in the tradition: Coleman, 
N:Morrison, Scanlon, O'Beirne, and 
N:others before them. It is their Sligo, 
N:the Sligo of Ballymote, Gurteen,
N:and Collooney. And it is also the 
N:Sligo of Ben Bulben, that most famous
N:hill immortalized in the verses of 
N:Ireland's Nobel Prize winning poet 
N:William Butler Yeats.
Z:Joe Reavy
K:D
AF|:FdAF G2 EG|FEFD CDEG|FDFA efaf|gece dBAG|
FdAF G2 EG|FEFD GFEG|FAdf ecdB|1 AFGE FDDE:|
2 AFGE FD D2||fgaf defa|gfga bgeg|fgaf defa|
gbeg ed d2|fg (3agf bagf|(3agf ec dcAG|FAdf ecdB|
1AFGE FD D2:|2AFGE FDDE||
